manual-assets/community/dde/common/Space.svg

<?xml version="1.0" encoding="iso-8859-1"?>
<!-- Generator: Adobe Illustrator 18.0.0, SVG Export Plug-In . SVG Version: 6.00 Build 0)  -->
<!DOCTYPE svg PUBLIC "-//W3C//DTD SVG 1.1//EN" "http://www.w3.org/Graphics/SVG/1.1/DTD/svg11.dtd">
<svg version="1.1" id="&#x56FE;&#x5C42;_1" xmlns="http://www.w3.org/2000/svg" xmlns:xlink="http://www.w3.org/1999/xlink" x="0px"
	 y="0px" viewBox="0 0 30 20" enable-background="new 0 0 30 20" xml:space="preserve">
<g>
	<path opacity="0.1" fill="#FFFFFF" d="M25.667,19.5H4.333c-2.108,0-3.833-1.725-3.833-3.833V4.333C0.5,2.225,2.225,0.5,4.333,0.5
		h21.334c2.108,0,3.833,1.725,3.833,3.833v11.334C29.5,17.775,27.775,19.5,25.667,19.5z"/>
	<g>
		<path fill="none" stroke="#CBCBCB" stroke-miterlimit="10" d="M25.5,19.5h-21c-2.209,0-4-1.791-4-4v-11c0-2.209,1.791-4,4-4h21
			c2.209,0,4,1.791,4,4v11C29.5,17.709,27.709,19.5,25.5,19.5z"/>
	</g>
</g>
<path d="M9,12.383V15H8V8h1v0.894c0,0,0.593-0.932,1.723-0.932c0.639,0,1.21,0.222,1.573,0.652c0.362,0.432,0.579,1.013,0.579,1.738
	c0,0.801-0.189,1.446-0.599,1.932c-0.412,0.487-1.096,0.81-1.792,0.81C9.57,13.094,9,12.383,9,12.383z M9,10.917
	c0,0.392,0.193,0.722,0.455,0.991c0.262,0.268,0.621,0.402,1.016,0.402c0.47,0,0.853-0.174,1.118-0.522
	c0.265-0.348,0.405-0.83,0.405-1.445c0-0.52-0.12-0.926-0.367-1.22c-0.247-0.295-0.583-0.442-1.01-0.442
	c-0.436,0-0.856,0.15-1.136,0.448S9,9.81,9,10.277V10.917z"/>
<path d="M14.291,8.51c0.511-0.289,1.1-0.434,1.769-0.434c1.238,0,1.857,0.59,1.857,1.769v2.999h-0.901v-0.72h-0.023
	c-0.356,0.553-0.88,0.83-1.574,0.83c-0.499,0-0.894-0.122-1.189-0.366c-0.294-0.244-0.441-0.574-0.441-0.99
	c0-0.87,0.568-1.377,1.704-1.52l1.523-0.194c0-0.761-0.346-1.141-1.04-1.141c-0.616,0-1.177,0.188-1.685,0.564V8.51z M15.814,10.654
	c-0.421,0.051-0.711,0.146-0.87,0.286c-0.16,0.141-0.24,0.337-0.24,0.59c0,0.222,0.086,0.403,0.26,0.543s0.402,0.211,0.687,0.211
	c0.396,0,0.722-0.126,0.98-0.379c0.257-0.253,0.385-0.57,0.385-0.952v-0.446L15.814,10.654z"/>
<path d="M22.756,12.791c-0.404,0.224-0.89,0.337-1.46,0.337c-0.763,0-1.377-0.228-1.842-0.682c-0.465-0.455-0.697-1.044-0.697-1.768
	c0-0.804,0.251-1.451,0.751-1.943c0.502-0.491,1.172-0.737,2.011-0.737c0.484,0,0.897,0.08,1.24,0.239v0.86
	c-0.372-0.254-0.785-0.381-1.24-0.381c-0.534,0-0.969,0.172-1.305,0.516c-0.335,0.345-0.503,0.803-0.503,1.376
	c0,0.565,0.158,1.006,0.474,1.325c0.317,0.319,0.744,0.479,1.281,0.479c0.455,0,0.885-0.139,1.288-0.417V12.791z"/>
<path d="M28.048,10.766h-3.71c0.016,0.527,0.171,0.934,0.465,1.221c0.294,0.288,0.705,0.431,1.232,0.431
	c0.594,0,1.139-0.177,1.634-0.531v0.781c-0.467,0.306-1.085,0.46-1.855,0.46c-0.767,0-1.365-0.226-1.795-0.679
	c-0.43-0.453-0.645-1.08-0.645-1.884c0-0.756,0.236-1.38,0.707-1.871c0.472-0.491,1.057-0.737,1.757-0.737
	c0.693,0,1.235,0.207,1.625,0.623c0.39,0.414,0.585,0.996,0.585,1.743V10.766z M27.109,10.065c-0.003-0.446-0.117-0.792-0.34-1.036
	c-0.223-0.244-0.539-0.366-0.944-0.366c-0.374,0-0.698,0.129-0.97,0.388c-0.274,0.259-0.446,0.596-0.516,1.014H27.109z"/>
<g>
	<path d="M4.233,13.171c-0.349,0-0.762-0.044-1.229-0.132c-0.46-0.087-0.799-0.194-1.006-0.321l0.031-1.163
		c0.264,0.177,0.596,0.327,0.991,0.446c0.466,0.142,0.916,0.214,1.339,0.214c1.262,0,1.992-0.177,1.992-1.083
		c0-0.247-0.075-0.472-0.221-0.669c-0.141-0.19-0.338-0.36-0.584-0.506c-0.241-0.142-0.679-0.354-1.34-0.649
		C3.321,8.911,2.733,8.54,2.457,8.205C2.185,7.877,2.047,7.496,2.047,7.073c0-0.646,0.281-1.145,0.86-1.525
		c0.582-0.383,1.3-0.577,2.192-0.577C5.745,4.972,7,5.116,7,5.413v0.919c0-0.258-1.104-0.528-1.965-0.528
		c-0.564,0-1.018,0.109-1.377,0.325C3.294,6.346,3.077,6.565,3.077,6.984c0,0.355,0.135,0.649,0.396,0.873
		C3.721,8.07,4.241,8.35,5.059,8.714c0.868,0.374,1.482,0.751,1.823,1.12c0.334,0.361,0.505,0.771,0.505,1.22
		c0,0.685-0.268,1.195-0.818,1.562C6.015,12.984,5.228,13.171,4.233,13.171z"/>
</g>
</svg>

<?xml version="1.0" encoding="UTF-8"?>
<svg width="30px" height="20px" viewBox="0 0 30 20" version="1.1" xmlns="http://www.w3.org/2000/svg" xmlns:xlink="http://www.w3.org/1999/xlink">
    <!-- Generator: Sketch 64 (93537) - https://sketch.com -->
    <title>Space</title>
    <desc>Created with Sketch.</desc>
    <g id="页面-1" stroke="none" stroke-width="1" fill="none" fill-rule="evenodd">
        <g id="Space">
            <g id="编组">
                <path d="M25.667,19.5 L4.333,19.5 C2.225,19.5 0.5,17.775 0.5,15.667 L0.5,4.333 C0.5,2.225 2.225,0.5 4.333,0.5 L25.667,0.5 C27.775,0.5 29.5,2.225 29.5,4.333 L29.5,15.667 C29.5,17.775 27.775,19.5 25.667,19.5 Z" id="路径" fill="#FFFFFF" fill-rule="nonzero"></path>
                <path d="M25.5,19.5 L4.5,19.5 C2.291,19.5 0.5,17.709 0.5,15.5 L0.5,4.5 C0.5,2.291 2.291,0.5 4.5,0.5 L25.5,0.5 C27.709,0.5 29.5,2.291 29.5,4.5 L29.5,15.5 C29.5,17.709 27.709,19.5 25.5,19.5 Z" id="路径" stroke="#CBCBCB"></path>
            </g>
            <path d="M9,12.383 L9,15 L8,15 L8,8 L9,8 L9,8.894 C9,8.894 9.593,7.962 10.723,7.962 C11.362,7.962 11.933,8.184 12.296,8.614 C12.658,9.046 12.875,9.627 12.875,10.352 C12.875,11.153 12.686,11.798 12.276,12.284 C11.864,12.771 11.18,13.094 10.484,13.094 C9.57,13.094 9,12.383 9,12.383 Z M9,10.917 C9,11.309 9.193,11.639 9.455,11.908 C9.717,12.176 10.076,12.31 10.471,12.31 C10.941,12.31 11.324,12.136 11.589,11.788 C11.854,11.44 11.994,10.958 11.994,10.343 C11.994,9.823 11.874,9.417 11.627,9.123 C11.38,8.828 11.044,8.681 10.617,8.681 C10.181,8.681 9.761,8.831 9.481,9.129 C9.201,9.427 9,9.81 9,10.277 L9,10.917 Z" id="形状" fill="#000000" fill-rule="nonzero"></path>
            <path d="M14.291,8.51 C14.802,8.221 15.391,8.076 16.06,8.076 C17.298,8.076 17.917,8.666 17.917,9.845 L17.917,12.844 L17.016,12.844 L17.016,12.124 L16.993,12.124 C16.637,12.677 16.113,12.954 15.419,12.954 C14.92,12.954 14.525,12.832 14.23,12.588 C13.936,12.344 13.789,12.014 13.789,11.598 C13.789,10.728 14.357,10.221 15.493,10.078 L17.016,9.884 C17.016,9.123 16.67,8.743 15.976,8.743 C15.36,8.743 14.799,8.931 14.291,9.307 L14.291,8.51 L14.291,8.51 Z M15.814,10.654 C15.393,10.705 15.103,10.8 14.944,10.94 C14.784,11.081 14.704,11.277 14.704,11.53 C14.704,11.752 14.79,11.933 14.964,12.073 C15.138,12.213 15.366,12.284 15.651,12.284 C16.047,12.284 16.373,12.158 16.631,11.905 C16.888,11.652 17.016,11.335 17.016,10.953 L17.016,10.507 L15.814,10.654 Z" id="形状" fill="#000000" fill-rule="nonzero"></path>
            <path d="M22.756,12.791 C22.352,13.015 21.866,13.128 21.296,13.128 C20.533,13.128 19.919,12.9 19.454,12.446 C18.989,11.991 18.757,11.402 18.757,10.678 C18.757,9.874 19.008,9.227 19.508,8.735 C20.01,8.244 20.68,7.998 21.519,7.998 C22.003,7.998 22.416,8.078 22.759,8.237 L22.759,9.097 C22.387,8.843 21.974,8.716 21.519,8.716 C20.985,8.716 20.55,8.888 20.214,9.232 C19.879,9.577 19.711,10.035 19.711,10.608 C19.711,11.173 19.869,11.614 20.185,11.933 C20.502,12.252 20.929,12.412 21.466,12.412 C21.921,12.412 22.351,12.273 22.754,11.995 L22.754,12.791 L22.756,12.791 Z" id="路径" fill="#000000" fill-rule="nonzero"></path>
            <path d="M28.048,10.766 L24.338,10.766 C24.354,11.293 24.509,11.7 24.803,11.987 C25.097,12.275 25.508,12.418 26.035,12.418 C26.629,12.418 27.174,12.241 27.669,11.887 L27.669,12.668 C27.202,12.974 26.584,13.128 25.814,13.128 C25.047,13.128 24.449,12.902 24.019,12.449 C23.589,11.996 23.374,11.369 23.374,10.565 C23.374,9.809 23.61,9.185 24.081,8.694 C24.553,8.203 25.138,7.957 25.838,7.957 C26.531,7.957 27.073,8.164 27.463,8.58 C27.853,8.994 28.048,9.576 28.048,10.323 L28.048,10.766 L28.048,10.766 Z M27.109,10.065 C27.106,9.619 26.992,9.273 26.769,9.029 C26.546,8.785 26.23,8.663 25.825,8.663 C25.451,8.663 25.127,8.792 24.855,9.051 C24.581,9.31 24.409,9.647 24.339,10.065 L27.109,10.065 Z" id="形状" fill="#000000" fill-rule="nonzero"></path>
            <path d="M4.233,13.171 C3.884,13.171 3.471,13.127 3.004,13.039 C2.544,12.952 2.205,12.845 1.998,12.718 L2.029,11.555 C2.293,11.732 2.625,11.882 3.02,12.001 C3.486,12.143 3.936,12.215 4.359,12.215 C5.621,12.215 6.351,12.038 6.351,11.132 C6.351,10.885 6.276,10.66 6.13,10.463 C5.989,10.273 5.792,10.103 5.546,9.957 C5.305,9.815 4.867,9.603 4.206,9.308 C3.321,8.911 2.733,8.54 2.457,8.205 C2.185,7.877 2.047,7.496 2.047,7.073 C2.047,6.427 2.328,5.928 2.907,5.548 C3.489,5.165 4.207,4.971 5.099,4.971 C5.745,4.972 7,5.116 7,5.413 L7,6.332 C7,6.074 5.896,5.804 5.035,5.804 C4.471,5.804 4.017,5.913 3.658,6.129 C3.294,6.346 3.077,6.565 3.077,6.984 C3.077,7.339 3.212,7.633 3.473,7.857 C3.721,8.07 4.241,8.35 5.059,8.714 C5.927,9.088 6.541,9.465 6.882,9.834 C7.216,10.195 7.387,10.605 7.387,11.054 C7.387,11.739 7.119,12.249 6.569,12.616 C6.015,12.984 5.228,13.171 4.233,13.171 Z" id="路径" fill="#000000" fill-rule="nonzero"></path>
        </g>
    </g>
</svg>
